X:80
T: Day After Christmas (The)
C: M. Dugger
Z: B.Black
R: polka
M: 2/4
L: 1/8
K: G
B |: dB GB | c/B/A GD | E/F/G AF | FG AB |
dB GB | c/B/A GD | E/F/G AF | G2 G2 :|
BA B/c/d | fd gd | ef/g/ af | gf ed |
BA B/c/d | fd gd | ef/g/ af |1 g2 g2 :|
|2 g2 a2 || a/g/f g/f/e | ge dB | c/B/A B/A/G |
AF DA | dB GB | c/B/A GD | E/F/G AF | G2 G2 :|
